!!!!SEGMENT:10Syurabayashi_c.krn
!!!OTL: 修羅囃
!!!OPR:Eiga Banso Kyokusyu,jidai-geki,zenpen
!!!YOY:1929
!!!ONB:Rantou
**kern
*clefG2
*C:
*M2/4
=1
8r
16eeLL
16ddJJ
8bL
8ddJ
=2
8eeL
8ffnJ
16eeLL
16ee
16ee
16ddJJ
=3
8eL
8ggJ
16ff#LL
16ff#
16ff#
16eeJJ
=4
8ccnL
8eeJ
8ccL
8bJ
=5
8AL
8BJ
8bL
8aaJ
=6
8bbL
16bbL
16bbJJ
8bbL
8ccc#J
=7
8aaL
16aaL
16aaJJ
8aaL
8aaJ
=8
16bbLL
16bb
16bb
16aaJJ
8ff#L
8ff#J
=9
8r
16ggLL
16ggJJ
16ggLL
16ggJ
8ff#J
=10
16ggLL
16gg
16gg
16ggJJ
8ff#L
8ggJ
=11
16eeLL
16ee
16ee
16eeJJ
16ff#LL
16ee
16ccn
16ccJJ
=12
16eeLL
16ee
16ff#
16eeJJ
8ccnL
8bJ
=13
8r
8a
8aL
8fnJ
=14
8aL
16fnL
16aJJ
8fL
8eJ
=15
8dL
8eJ
8dL
8eJ
=16
16BLL
16f#
16f#
16f#JJ
8f#
8r
=17
8r
16BLL
16f#JJ
16f#LL
16f#J
8f#J
=18
16BLL
16f#
16f#
16f#JJ
8f#
8r
=19
16gKL
8g
16bJk
8cc#L
8bJ
=20
8cc#L
16cc#L
16cc#JJ
8cc#L
8eeJ
=21
8ff#L
16ff#L
16ff#JJ
8ff#L
8ff#J
=22
16aaLL
16aa
16bb
16aaJJ
16ff#LL
16ff#
16gg
16ff#JJ
=23
16eeLL
16ee
16ff#
16eeJJ
8ccnL
8bJ
=24
16BLL
16a
16a
16aJJ
16bLL
16a
16b
16aJJ
=25
8eL
16eeL
16eeJJ
8b
8r
==
*-
!!!ENC: Yukiko Yoden
!!!END: 2023/06/11
